newicons/zoom_earth.svg

<?xml version="1.0" encoding="UTF-8" standalone="no"?>
<svg
   viewBox="0 0 48 48"
   version="1.1"
   id="svg1"
   sodipodi:docname="zoom_earth.svg"
   inkscape:version="1.2.2 (b0a8486541, 2022-12-01)"
   xml:space="preserve"
   xmlns:inkscape="http://www.inkscape.org/namespaces/inkscape"
   xmlns:sodipodi="http://sodipodi.sourceforge.net/DTD/sodipodi-0.dtd"
   xmlns="http://www.w3.org/2000/svg"
   xmlns:svg="http://www.w3.org/2000/svg"><sodipodi:namedview
     id="namedview1"
     pagecolor="#505050"
     bordercolor="#eeeeee"
     borderopacity="1"
     inkscape:showpageshadow="0"
     inkscape:pageopacity="0"
     inkscape:pagecheckerboard="0"
     inkscape:deskcolor="#505050"
     inkscape:zoom="8.90625"
     inkscape:cx="5.7263158"
     inkscape:cy="16.729825"
     inkscape:window-width="1918"
     inkscape:window-height="1053"
     inkscape:window-x="0"
     inkscape:window-y="0"
     inkscape:window-maximized="1"
     inkscape:current-layer="svg1"
     showgrid="false" /><defs
     id="defs1"><style
       id="style1">.a { fill:none;stroke:#fff;stroke-linecap:round;stroke-linejoin:round; }
</style></defs><g
     id="g15677"><path
       style="fill:none;stroke:#ffffff;stroke-linecap:round;stroke-linejoin:round;stroke-dashoffset:0.5;stroke-opacity:1"
       d="M 45.5,24 A 21.5,21.5 0 0 1 24,45.5 21.5,21.5 0 0 1 2.5,24 21.5,21.5 0 0 1 24,2.5 21.5,21.5 0 0 1 45.5,24 Z"
       id="path15659" /><path
       style="fill:none;stroke:#ffffff;stroke-linecap:round;stroke-linejoin:round;stroke-dashoffset:0.5;stroke-opacity:1"
       d="m 19.463347,22.527274 c -1.662861,5.281841 4.439373,10.82597 12.32575,9.551498 5.449103,-0.880598 12.937515,-7.560979 11.359359,-17.851257"
       id="path15657" /><path
       style="fill:none;stroke:#ffffff;stroke-linecap:round;stroke-linejoin:round;stroke-dashoffset:0.5;stroke-opacity:1"
       d="M 28.536656,25.472725 C 30.199517,20.190885 24.097283,14.646757 16.210906,15.921229 10.783072,16.798389 3.3318149,23.430146 4.8334776,33.652154"
       id="path15655" /><path
       style="fill:none;stroke:#ffffff;stroke-linecap:round;stroke-linejoin:round;stroke-dashoffset:0.5;stroke-opacity:1"
       d="m 24.993054,19.333635 c -5.131227,-1.162471 -10.307759,4.80756 -9.071825,12.455463 0.87716,5.427834 7.508918,12.879088 17.730926,11.377425"
       id="path15653" /><path
       style="fill:none;stroke:#ffffff;stroke-linecap:round;stroke-linejoin:round;stroke-dashoffset:0.5;stroke-opacity:1"
       d="m 22.527276,28.536657 c 5.28184,1.662861 10.825968,-4.439373 9.551496,-12.32575 C 31.201612,10.783073 24.569855,3.3318159 14.347847,4.8334786"
       id="path15651" /><path
       style="fill:none;stroke:#ffffff;stroke-linecap:round;stroke-linejoin:round;stroke-dashoffset:0.5;stroke-opacity:1"
       d="M 28.767783,24 A 4.7677827,4.7677827 0 0 1 24,28.767783 4.7677827,4.7677827 0 0 1 19.232217,24 4.7677827,4.7677827 0 0 1 24,19.232217 4.7677827,4.7677827 0 0 1 28.767783,24 Z"
       id="path15599" /></g></svg>

<?xml version="1.0" encoding="UTF-8"?><svg id="a" xmlns="http://www.w3.org/2000/svg" viewBox="0 0 48 48"><defs><style>.i{fill:none;stroke:#fff;stroke-linecap:round;stroke-linejoin:round;}</style></defs><g id="b"><path id="c" class="i" d="M45.5,24c0,11.8741-9.6259,21.5-21.5,21.5S2.5,35.8741,2.5,24,12.1259,2.5,24,2.5s21.5,9.6259,21.5,21.5Z"/><path id="d" class="i" d="M19.4633,22.5273c-1.6629,5.2818,4.4394,10.826,12.3258,9.5515,5.4491-.8806,12.9375-7.561,11.3594-17.8513"/><path id="e" class="i" d="M28.5367,25.4727c1.6629-5.2818-4.4394-10.826-12.3258-9.5515-5.4278.8772-12.8791,7.5089-11.3774,17.7309"/><path id="f" class="i" d="M24.9931,19.3336c-5.1312-1.1625-10.3078,4.8076-9.0718,12.4555.8772,5.4278,7.5089,12.8791,17.7309,11.3774"/><path id="g" class="i" d="M22.5273,28.5367c5.2818,1.6629,10.826-4.4394,9.5515-12.3258-.8772-5.4278-7.5089-12.8791-17.7309-11.3774"/><path id="h" class="i" d="M28.7678,24c0,2.6332-2.1346,4.7678-4.7678,4.7678s-4.7678-2.1346-4.7678-4.7678,2.1346-4.7678,4.7678-4.7678,4.7678,2.1346,4.7678,4.7678Z"/></g></svg>
